icons/image-edit-fill.svg

<svg viewBox="0 0 24 24" fill="currentColor" xmlns="http://www.w3.org/2000/svg"><path d="M20 3C20.5523 3 21 3.44772 21 4V5.757L19 7.757V5H5V13.1L9 9.1005L13.328 13.429L12.0012 14.7562L11.995 18.995L16.2414 19.0012L17.571 17.671L18.8995 19H19V16.242L21 14.242V20C21 20.5523 20.5523 21 20 21H4C3.44772 21 3 20.5523 3 20V4C3 3.44772 3.44772 3 4 3H20ZM21.7782 7.80761L23.1924 9.22183L15.4142 17L13.9979 16.9979L14 15.5858L21.7782 7.80761ZM15.5 7C16.3284 7 17 7.67157 17 8.5C17 9.32843 16.3284 10 15.5 10C14.6716 10 14 9.32843 14 8.5C14 7.67157 14.6716 7 15.5 7Z"/></svg>

<svg xmlns="http://www.w3.org/2000/svg" viewBox="0 0 24 24">
    <g>
        <path fill="none" d="M0 0H24V24H0z"/>
        <path d="M20 3c.552 0 1 .448 1 1v1.757l-2 2V5H5v8.1l4-4 4.328 4.329-1.327 1.327-.006 4.239 4.246.006 1.33-1.33L18.899 19H19v-2.758l2-2V20c0 .552-.448 1-1 1H4c-.552 0-1-.448-1-1V4c0-.552.448-1 1-1h16zm1.778 4.808l1.414 1.414L15.414 17l-1.416-.002.002-1.412 7.778-7.778zM15.5 7c.828 0 1.5.672 1.5 1.5s-.672 1.5-1.5 1.5S14 9.328 14 8.5 14.672 7 15.5 7z"/>
    </g>
</svg>
